usr/share/icons/biglinux-icons-material/16/actions/align-horizontal-right.svg

<svg xmlns="http://www.w3.org/2000/svg" viewBox="0 0 16 16"><path d="M2 2v5h10V2H2zm11 0v12h1V2h-1zM3 3h8v3H3V3zm4 6v5h5V9H7zm1 1h3v3H8v-3z" style="fill:currentColor;fill-opacity:1;stroke:none;color:#dedede"/></svg>

<svg xmlns="http://www.w3.org/2000/svg" viewBox="0 0 16 16">
  <defs id="defs3051">
    <style type="text/css" id="current-color-scheme">
      .ColorScheme-Text {
        color:#dedede;
      }
      </style>
  </defs>
 <path style="fill:currentColor;fill-opacity:1;stroke:none" 
       d="M 2 2 L 2 7 L 12 7 L 12 2 L 2 2 z M 13 2 L 13 14 L 14 14 L 14 2 L 13 2 z M 3 3 L 11 3 L 11 6 L 3 6 L 3 3 z M 7 9 L 7 14 L 12 14 L 12 9 L 7 9 z M 8 10 L 11 10 L 11 13 L 8 13 L 8 10 z "
     class="ColorScheme-Text"
     />
</svg>
